optimized/24/solid/at-symbol.svg

<svg xmlns="http://www.w3.org/2000/svg" viewBox="0 0 24 24">
  <path fill-rule="evenodd" d="M17.8336 6.16637C14.6118 2.94454 9.38819 2.94454 6.16637 6.16637C2.94454 9.38819 2.94454 14.6118 6.16637 17.8336C9.38819 21.0555 14.6118 21.0555 17.8336 17.8336C18.1265 17.5407 18.6014 17.5407 18.8943 17.8336C19.1872 18.1265 19.1872 18.6014 18.8943 18.8943C15.0867 22.7019 8.91332 22.7019 5.10571 18.8943C1.2981 15.0867 1.2981 8.91332 5.10571 5.10571C8.91332 1.2981 15.0867 1.2981 18.8943 5.10571C20.798 7.00937 21.75 9.50593 21.75 12C21.75 12.975 21.4545 13.8866 20.941 14.5713C20.4273 15.2563 19.6603 15.75 18.75 15.75C17.8462 15.75 17.0837 15.2633 16.57 14.5859C15.668 16.1767 13.9593 17.25 12 17.25C9.1005 17.25 6.75 14.8995 6.75 12C6.75 9.1005 9.1005 6.75 12 6.75C13.469 6.75 14.7971 7.35335 15.75 8.32576V8.25C15.75 7.83579 16.0858 7.5 16.5 7.5C16.9142 7.5 17.25 7.83579 17.25 8.25V12C17.25 12.6818 17.4582 13.2703 17.759 13.6713C18.0596 14.0721 18.4177 14.25 18.75 14.25C19.0823 14.25 19.4404 14.0721 19.741 13.6713C20.0418 13.2703 20.25 12.6819 20.25 12C20.25 9.88749 19.4447 7.77743 17.8336 6.16637ZM15.75 12C15.75 9.92893 14.0711 8.25 12 8.25C9.92893 8.25 8.25 9.92893 8.25 12C8.25 14.0711 9.92893 15.75 12 15.75C14.0711 15.75 15.75 14.0711 15.75 12Z" clip-rule="evenodd"/>
</svg>

<svg xmlns="http://www.w3.org/2000/svg" viewBox="0 0 24 24" fill="currentColor" aria-hidden="true">
  <path fill-rule="evenodd" d="M17.834 6.166a8.25 8.25 0 100 11.668.75.75 0 011.06 1.06c-3.807 3.808-9.98 3.808-13.788 0-3.808-3.807-3.808-9.98 0-13.788 3.807-3.808 9.98-3.808 13.788 0A9.722 9.722 0 0121.75 12c0 .975-.296 1.887-.809 2.571-.514.685-1.28 1.179-2.191 1.179-.904 0-1.666-.487-2.18-1.164a5.25 5.25 0 11-.82-6.26V8.25a.75.75 0 011.5 0V12c0 .682.208 1.27.509 1.671.3.401.659.579.991.579.332 0 .69-.178.991-.579.3-.4.509-.99.509-1.671a8.222 8.222 0 00-2.416-5.834zM15.75 12a3.75 3.75 0 10-7.5 0 3.75 3.75 0 007.5 0z" clip-rule="evenodd"/>
</svg>
